X:514
T:Winter wie ist nu dein kraft
Z:Jack Campin, http://www.campin.me.uk/
F:Jack Campin's Nine-Note Tunebook
% last edit 26-02-2013
C:Neidhart von Reuental 
M:4/4
L:1/4
Q:1/4=120
P:ABA
K:DDor
P:A
FDFF|GGA2|AddA| AG F2 |
AAAG|FDC2|DEFG|(FE)D2:|
P:B
AddA|AABA|AGGF| GG A2:|

